X:61
T:Farrell O'Gara (reel)  
B:CRE1.131 (Fearghal O Gadhra)
F:file ID: cre.1/061farr_o
S:Sonny Brogan
M:C
L:1/8
Q:180
R:reel
K:D
z|A,DD2 A,DFA|BFAF EFAB|(3dcB (3cBA BdAF|(3GFE (3FED ECDB,|
"5"A,DD2 A,DFA|BFAF EFAB|(3dcB (3cBA BAGF|GFEG FDD:|
g|"9"fdd2 fdge|fdgf edBc|(3dcB (3cBA Bcde|fdgf edeg|
"13"fdd2 fdge|fdgf edBc|(3dcB (3cBA BAGF|GFEG FDDg|
"17"fdd2 fdge|fdgf edBc|(3dcB (3cBA Bcde|fdgf edeg|
"21"fgaf edBc|defd BAFD|A,DD2 A,DFA|BFAF HD4||

%%%

